Radio/Source/The Hits Radio.svg

<svg height="153.01125pt" viewBox="0 0 533.19824 153.01124" width="533.19824pt" xmlns="http://www.w3.org/2000/svg" xmlns:xlink="http://www.w3.org/1999/xlink"><linearGradient id="a" gradientUnits="userSpaceOnUse" x1=".06" x2="710.99103" y1="102.4075" y2="102.4075"><stop offset="0" stop-color="#3fc0f0"/><stop offset=".24016455" stop-color="#4cbfcc"/><stop offset=".48769987" stop-color="#63be8a"/><stop offset=".72793257" stop-color="#78bd4c"/><stop offset="1" stop-color="#86bc24"/></linearGradient><path d="m170.033 149.917c17.089 32.408 51.11 54.498 90.293 54.498 37.592 0 70.435-20.34 88.129-50.616 14.035 29.793 45.613 50.562 82.33 50.562 37.105 0 68.967-21.219 82.771-51.523v47.414h80.865v-47.303l33.086 47.303h83.364l-34.649-51.73c20.971-14.075 34.769-37.99 34.769-65.132 0-43.308-35.107-78.595-78.405-78.595h-85.076l-26.637 38.252v-38.255h-80.465v38.899l-27.096-38.899h-72.622v34.793c-18.67-23.853-47.729-39.185-80.364-39.185-32.4 0-61.27 15.108-79.959 38.659v-34.267h-85.877v39.568l-27.462-39.568h-66.968v65.646l39.497 58.656h-39.497v71.463h87.499c38.071 0 67.701-21.748 82.474-50.64z" fill="url(#a)" transform="matrix(.74999997 0 0 .74999997 -.045 -.3)"/><path d="m575.934 106.706c-17.286-3.524-32.48-8.478-32.48-24.774v-.221c0-14.644 11.451-25.985 32.702-25.985 14.864 0 25.875 3.523 34.794 10.57l-12.552 17.398c-7.269-5.286-15.968-7.598-23.123-7.598-3.854 0-5.615 1.321-5.615 3.193v.22c0 2.092 2.092 3.414 10.238 4.955 19.711 3.634 32.924 9.359 32.924 24.884v.22c0 16.186-13.323 26.096-34.023 26.096-15.636 0-29.729-4.404-39.528-12.993l13.764-16.406c8.368 6.386 17.947 9.029 26.977 9.029 4.625 0 6.606-1.211 6.606-3.303v-.22c-.004-2.203-2.427-3.413-10.684-5.065zm-112.532-49.549h71.129v21.802h-22.681v55.274h-25.766v-55.274h-22.682zm-37.877 0h25.765v77.076h-25.765zm-92.162 0h25.766v27.197h23.562v-27.197h25.766v77.076h-25.766v-27.637h-23.562v27.637h-25.766zm-83.133 0h57.146v12.112h-43.603v20.04h38.648v12.112h-38.648v20.7h44.153v12.112h-57.696zm-82.582 0h13.543v32.041h36.776v-32.041h13.543v77.076h-13.543v-32.482h-36.776v32.482h-13.543zm-78.177 0h62.541v12.553h-24.444v64.523h-13.654v-64.523h-24.443z" fill="#fff" transform="matrix(.74999997 0 0 .74999997 -.045 -.3)"/></svg>

<?xml version="1.0" encoding="UTF-8" standalone="no"?>
<svg
   xmlns:dc="http://purl.org/dc/elements/1.1/"
   xmlns:cc="http://creativecommons.org/ns#"
   xmlns:rdf="http://www.w3.org/1999/02/22-rdf-syntax-ns#"
   xmlns:svg="http://www.w3.org/2000/svg"
   xmlns="http://www.w3.org/2000/svg"
   xmlns:xlink="http://www.w3.org/1999/xlink"
   xmlns:sodipodi="http://sodipodi.sourceforge.net/DTD/sodipodi-0.dtd"
   xmlns:inkscape="http://www.inkscape.org/namespaces/inkscape"
   width="533.19824pt"
   height="153.01125pt"
   viewBox="0 0 533.19824 153.01124"
   version="1.1"
   id="svg2"
   inkscape:version="0.92.0 r15299"
   sodipodi:docname="The Hits Radio.svg">
  <metadata
     id="metadata26">
    <rdf:RDF>
      <cc:Work
         rdf:about="">
        <dc:format>image/svg+xml</dc:format>
        <dc:type
           rdf:resource="http://purl.org/dc/dcmitype/StillImage" />
        <dc:title></dc:title>
      </cc:Work>
    </rdf:RDF>
  </metadata>
  <defs
     id="defs24">
    <linearGradient
       inkscape:collect="always"
       id="linearGradient4162">
      <stop
         style="stop-color:#3fc0f0;stop-opacity:1"
         offset="0"
         id="stop4164" />
      <stop
         id="stop4170"
         offset="0.24016455"
         style="stop-color:#4cbfcc;stop-opacity:1" />
      <stop
         style="stop-color:#63be8a;stop-opacity:1"
         offset="0.48769987"
         id="stop4172" />
      <stop
         id="stop4174"
         offset="0.72793257"
         style="stop-color:#78bd4c;stop-opacity:1" />
      <stop
         style="stop-color:#86bc24;stop-opacity:1"
         offset="1"
         id="stop4166" />
    </linearGradient>
    <linearGradient
       inkscape:collect="always"
       xlink:href="#linearGradient4162"
       id="linearGradient4510"
       x1="0.059999999"
       y1="102.4075"
       x2="710.99103"
       y2="102.4075"
       gradientUnits="userSpaceOnUse" />
    <linearGradient
       inkscape:collect="always"
       xlink:href="#linearGradient4162"
       id="linearGradient4572"
       gradientUnits="userSpaceOnUse"
       x1="0.059999999"
       y1="102.4075"
       x2="710.99103"
       y2="102.4075" />
  </defs>
  <sodipodi:namedview
     pagecolor="#ffffff"
     bordercolor="#666666"
     borderopacity="1"
     objecttolerance="10"
     gridtolerance="10"
     guidetolerance="10"
     inkscape:pageopacity="0"
     inkscape:pageshadow="2"
     inkscape:window-width="1920"
     inkscape:window-height="1017"
     id="namedview22"
     showgrid="false"
     fit-margin-top="0"
     fit-margin-left="0"
     fit-margin-right="0"
     fit-margin-bottom="0"
     inkscape:zoom="1.307234"
     inkscape:cx="299.99289"
     inkscape:cy="-32.992337"
     inkscape:window-x="-8"
     inkscape:window-y="-8"
     inkscape:window-maximized="1"
     inkscape:current-layer="svg2" />
  <g
     transform="matrix(0.74999997,0,0,0.74999997,-0.045,-0.29999999)"
     id="g4"
     style="fill:url(#linearGradient4510);fill-opacity:1">
    <path
       inkscape:connector-curvature="0"
       d="m 170.033,149.917 c 17.089,32.408 51.11,54.498 90.293,54.498 37.592,0 70.435,-20.34 88.129,-50.616 14.035,29.793 45.613,50.562 82.33,50.562 37.105,0 68.967,-21.219 82.771,-51.523 v 47.414 h 80.865 v -47.303 l 33.086,47.303 h 83.364 l -34.649,-51.73 c 20.971,-14.075 34.769,-37.99 34.769,-65.132 0,-43.308 -35.107,-78.595 -78.405,-78.595 H 547.51 L 520.873,43.047 V 4.792 H 440.408 V 43.691 L 413.312,4.792 H 340.69 V 39.585 C 322.02,15.732 292.961,0.4 260.326,0.4 c -32.4,0 -61.27,15.108 -79.959,38.659 V 4.792 H 94.49 V 44.36 L 67.028,4.792 H 0.06 v 65.646 l 39.497,58.656 H 0.06 v 71.463 h 87.499 c 38.071,0 67.701,-21.748 82.474,-50.64 z"
       id="path2"
       style="fill:url(#linearGradient4572);fill-opacity:1"
       sodipodi:nodetypes="cscscccccccssccccccccsccccccccccsc" />
  </g>
  <g
     transform="matrix(0.74999997,0,0,0.74999997,-0.045,-0.29999999)"
     id="g4-2"
     style="fill:#ffffff;fill-opacity:1">
    <path
       inkscape:connector-curvature="0"
       d="m 575.934,106.706 c -17.286,-3.524 -32.48,-8.478 -32.48,-24.774 v -0.221 c 0,-14.644 11.451,-25.985 32.702,-25.985 14.864,0 25.875,3.523 34.794,10.57 l -12.552,17.398 c -7.269,-5.286 -15.968,-7.598 -23.123,-7.598 -3.854,0 -5.615,1.321 -5.615,3.193 v 0.22 c 0,2.092 2.092,3.414 10.238,4.955 19.711,3.634 32.924,9.359 32.924,24.884 v 0.22 c 0,16.186 -13.323,26.096 -34.023,26.096 -15.636,0 -29.729,-4.404 -39.528,-12.993 l 13.764,-16.406 c 8.368,6.386 17.947,9.029 26.977,9.029 4.625,0 6.606,-1.211 6.606,-3.303 v -0.22 c -0.004,-2.203 -2.427,-3.413 -10.684,-5.065 z M 463.402,57.157 h 71.129 V 78.959 H 511.85 v 55.274 H 486.084 V 78.959 h -22.682 z m -37.877,0 h 25.765 v 77.076 h -25.765 z m -92.162,0 h 25.766 v 27.197 h 23.562 V 57.157 h 25.766 v 77.076 h -25.766 v -27.637 h -23.562 v 27.637 h -25.766 z m -83.133,0 h 57.146 v 12.112 h -43.603 v 20.04 h 38.648 v 12.112 h -38.648 v 20.7 h 44.153 v 12.112 H 250.23 Z m -82.582,0 h 13.543 v 32.041 h 36.776 V 57.157 h 13.543 v 77.076 h -13.543 v -32.482 h -36.776 v 32.482 h -13.543 z m -78.177,0 h 62.541 V 69.71 h -24.444 v 64.523 H 113.914 V 69.71 H 89.471 Z"
       id="path2-2"
       style="fill:#ffffff;fill-opacity:1"
       sodipodi:nodetypes="csssccssscsssccsscccccccccccccccccccccccccccccccccccccccccccccccccccccccccccccccc" />
  </g>
</svg>
